!!!COM: Mozart, Wolfgang Amadeus
!!!CDT: 1756/1/27/-1791/12/5/
!!!OTL: String Quartet No. 1 in G Major
!!!OMD: Allegro
!!!OMV: Mvmt. 2
!!!SCT: K 80
!!!YOR: Breitkopf & Härtel Edition
!!!ENC: Edmund Correia, Jr.
!!!OCY: Österreich
**kern	**dynam	**kern	**dynam	**kern	**dynam	**kern	**dynam
*I:Violoncello	*I:Violoncello	*I:Viola	*I:Viola	*I:Violino II	*I:Violino II	*I:Violino I	*I:Violino I
*>[A,A,B,B]	*	*>[A,A,B,B]	*	*>[A,A,B,B]	*	*>[A,A,B,B]	*
*>A	*	*>A	*	*>A	*	*>A	*
*clefF4	*	*clefC3	*	*clefG2	*	*clefG2	*
*k[f#]	*	*k[f#]	*	*k[f#]	*	*k[f#]	*
*G:	*	*G:	*	*G:	*	*G:	*
*M4/4	*	*M4/4	*	*M4/4	*	*M4/4	*
! Allegro	!	! Allegro	!	! Allegro	!	! Allegro	!
4G\xx	f	8G/Lxx	f	4b/xx 4d/ 4G/	f	4gg/xx 4b/ 4d/	f
.	.	8G/	.	.	.	.	.
4r	.	8G/	.	(16b\LL	.	(16gg\LL	.
.	.	.	.	16a\	.	16ff#\	.
.	.	8G/J	.	16b\	.	16gg\	.
.	.	.	.	16cc\JJ	.	16aa\JJ	.
2r	.	8G/L	.	8b\L)	.	8gg\L)	.
.	.	8G/	.	8b'\	.	8gg'\	.
.	.	8G/	.	8a'\	.	8ff#'\	.
.	.	8G/J	.	8cc'\J	.	8aa'\J	.
=2	=2	=2	=2	=2	=2	=2	=2
1r	.	8G/L	.	8b'/L	.	8gg'\L	.
.	.	8G/	.	8g'/	.	8bb'\	.
.	.	8G/	.	8f#'/	.	8aa'\	.
.	.	8G/J	.	8a'/J	.	8ccc'\J	.
.	.	4G/	.	8g'/	.	8bb'\	.
.	.	.	.	8r	.	8r	.
.	.	4r	.	4r	.	4r	.
=3	=3	=3	=3	=3	=3	=3	=3
2G\	.	2g\	.	2gg/ 2b/ 2d/ 2G/	.	2gg/ 2b/ 2d/ 2G/	.
2D\	.	2d\	.	2dd\	.	2dd\	.
=4	=4	=4	=4	=4	=4	=4	=4
! 16CP/	!	! 16cP/	!	! 16ccP/	!	! 16ccP/	!
4BBp/	.	4Bp/	.	4bp\	.	4bp\	.
8AA/L	.	8A/L	.	8a/L	.	8a/L	.
8GG/J	.	8G/J	.	8g/J	.	8g/J	.
4D\	.	4d\	.	4dd\	.	4dd\	.
4r	.	4D/	.	4d/	.	4d/	.
=5	=5	=5	=5	=5	=5	=5	=5
4G\	.	8G/L	.	4g/	.	4g/	.
.	.	8G/	.	.	.	.	.
4r	.	8G/	.	(16b\LL	.	(16gg\LL	.
.	.	.	.	16a\	.	16ff#\	.
.	.	8G/J	.	16b\	.	16gg\	.
.	.	.	.	16cc\JJ	.	16aa\JJ	.
2r	.	8G/L	.	8b\L)	.	8gg\L)	.
.	.	8G/	.	8b'\	.	8gg'\	.
.	.	8G/	.	8a'\	.	8ff#'\	.
.	.	8G/J	.	8cc'\J	.	8aa'\J	.
=6	=6	=6	=6	=6	=6	=6	=6
1r	.	8G/L	.	8b'/L	.	8gg'\L	.
.	.	8G/	.	8g'/	.	8bb'\	.
.	.	8G/	.	8f#'/	.	8aa'\	.
.	.	8G/J	.	8a'/J	.	8ccc'\J	.
.	.	4G/	.	8g'/	.	8bb'\	.
.	.	.	.	8r	.	8r	.
.	.	4r	.	4r	.	4r	.
=7	=7	=7	=7	=7	=7	=7	=7
2G\	.	2g\	.	2gg/ 2b/ 2d/ 2G/	.	2gg/ 2b/ 2d/ 2G/	.
2D\	.	2d\	.	2dd\	.	2dd\	.
=8	=8	=8	=8	=8	=8	=8	=8
! 16CP/	!	! 16cP/	!	! 16ccP/	!	! 16ccP/	!
4BBp/	.	4Bp/	.	4bp\	.	4bp\	.
8AA/L	.	8A/L	.	8a/L	.	8a/L	.
8GG/J	.	8G/J	.	8g/J	.	8g/J	.
4D\	.	4d\	.	4dd\	.	4dd\	.
4r	.	4D/	.	4d/	.	4d/	.
=9	=9	=9	=9	=9	=9	=9	=9
8G\L	.	16G/LL	.	16g/LL	.	4g/ 4G/	.
.	.	16B/	.	16d/	.	.	.
8G\	.	16B/	.	16d/	.	.	.
.	.	16B/JJ	.	16d/JJ	.	.	.
8G\	.	16B/LL	.	16d/LL	.	4r	.
.	.	16B/	.	16d/	.	.	.
8G\J	.	16B/	.	16d/	.	.	.
.	.	16B/JJ	.	16d/JJ	.	.	.
8G\L	.	16B/LL	.	16d/LL	.	4.gg\	.
.	.	16B/	.	16d/	.	.	.
8G\	.	16B/	.	16d/	.	.	.
.	.	16B/JJ	.	16d/JJ	.	.	.
8G\	.	16B/LL	.	16d/LL	.	.	.
.	.	16B/	.	16d/	.	.	.
8G\J	.	16B/	.	16d/	.	(16bb\LL	.
.	.	16B/JJ	.	16d/JJ	.	16gg\JJ)	.
=10	=10	=10	=10	=10	=10	=10	=10
8A\L	.	16c\LL	.	16d/LL	.	4ff#\	.
.	.	16c\	.	16d/	.	.	.
8A\	.	16c\	.	16d/	.	.	.
.	.	16c\JJ	.	16d/JJ	.	.	.
8A\	.	16c\LL	.	16d/LL	.	4r	.
.	.	16c\	.	16d/	.	.	.
8A\J	.	16c\	.	16d/	.	.	.
.	.	16c\JJ	.	16d/JJ	.	.	.
8D\L	.	16c\LL	.	16f#/LL	.	4.aa\	.
.	.	16c\	.	16f#/	.	.	.
8D\	.	16c\	.	16f#/	.	.	.
.	.	16c\JJ	.	16f#/JJ	.	.	.
8D\	.	16c\LL	.	16f#/LL	.	.	.
.	.	16c\	.	16f#/	.	.	.
8D\J	.	16c\	.	16f#/	.	(16ccc\LL	.
.	.	16c\JJ	.	16f#/JJ	.	16aa\JJ)	.
=11	=11	=11	=11	=11	=11	=11	=11
8GG/L	.	16B/LL	.	16g/LL	.	4gg\	.
.	.	16B/	.	16d/	.	.	.
8GG/	.	16B/	.	16d/	.	.	.
.	.	16B/JJ	.	16d/JJ	.	.	.
8GG/	.	16B/LL	.	16d/LL	.	4r	.
.	.	16B/	.	16d/	.	.	.
8GG/J	.	16B/	.	16d/	.	.	.
.	.	16B/JJ	.	16d/JJ	.	.	.
8G\L	.	16B/LL	.	16d/LL	.	4.gg\	.
.	.	16B/	.	16d/	.	.	.
8G\	.	16B/	.	16d/	.	.	.
.	.	16B/JJ	.	16d/JJ	.	.	.
8G\	.	16B/LL	.	16d/LL	.	.	.
.	.	16B/	.	16d/	.	.	.
8G\J	.	16B/	.	16d/	.	(16bb\LL	.
.	.	16B/JJ	.	16d/JJ	.	16gg\JJ)	.
=12	=12	=12	=12	=12	=12	=12	=12
8A\L	.	16c\LL	.	16d/LL	.	4ff#\	.
.	.	16c\	.	16d/	.	.	.
8A\	.	16c\	.	16d/	.	.	.
.	.	16c\JJ	.	16d/JJ	.	.	.
8A\	.	16c\LL	.	16d/LL	.	4r	.
.	.	16c\	.	16d/	.	.	.
8A\J	.	16c\	.	16d/	.	.	.
.	.	16c\JJ	.	16d/JJ	.	.	.
8D\L	.	16c\LL	.	16f#/LL	.	4.aa\	.
.	.	16c\	.	16f#/	.	.	.
8D\	.	16c\	.	16f#/	.	.	.
.	.	16c\JJ	.	16f#/JJ	.	.	.
8D\	.	16c\LL	.	16f#/LL	.	.	.
.	.	16c\	.	16f#/	.	.	.
8D\J	.	16c\	.	16f#/	.	(16ccc\LL	.
.	.	16c\JJ	.	16f#/JJ	.	16aa\JJ)	.
=13	=13	=13	=13	=13	=13	=13	=13
8G/L	.	8B/L	.	8g/L	.	8gg\L	.
8GG/	.	8G/	.	8G/	.	8G/	.
8AA/	.	8A/	.	8A/	.	8A/	.
8BB/J	.	8B/J	.	8B/J	.	8B/J	.
8C\L	.	8c\L	.	8c/L	.	8c/L	.
8D\	.	8d\	.	8d/	.	8d/	.
8E\	.	8e\	.	8e/	.	8e/	.
8F#\J	.	8f#\J	.	8f#/J	.	8f#/J	.
=14	=14	=14	=14	=14	=14	=14	=14
8G\L	.	8g\L	.	8g/L	.	8g/L	.
8F#\	.	8f#\	.	8f#/	.	8f#/	.
8E\	.	8e\	.	8e/	.	8e/	.
8D\J	.	8d\J	.	8d/J	.	8d/J	.
8C/L	.	8c/L	.	8c/L	.	8c/L	.
8BB/	.	8B/	.	8B/	.	8B/	.
8AA/	.	8A/	.	8A/	.	8A/	.
8GG/J	.	8G/J	.	8G/J	.	8G/J	.
=15	=15	=15	=15	=15	=15	=15	=15
4D\	.	4d\	.	4d/	.	4d/	.
4d\	.	4dd\	.	4ff#/ 4a/ 4d/	.	4ff#/ 4a/ 4d/	.
4D\	.	4d\	.	4ff#/ 4a/ 4d/	.	4ff#/ 4a/ 4d/	.
4r	.	4r	.	4r	.	4r	.
=16	=16	=16	=16	=16	=16	=16	=16
1r	.	1r	.	1r	.	2dd\	.
.	.	.	.	.	.	4ff#\	.
.	.	.	.	.	.	4aa\	.
=17	=17	=17	=17	=17	=17	=17	=17
1r	.	1r	.	2dd\	.	2.ddd\	.
.	.	.	.	4ff#\	.	.	.
.	.	.	.	4aa\	.	4eee\	.
=18	=18	=18	=18	=18	=18	=18	=18
1r	.	2d\	.	4ddd\	.	4fff#\	.
.	.	.	.	2ddd\	.	2fff#\	.
.	.	4f#\	.	.	.	.	.
.	.	4a\	.	(8eee\L	.	(8ggg\L	.
.	.	.	.	8ccc#\J)	.	8eee\J)	.
=19	=19	=19	=19	=19	=19	=19	=19
2D\	.	4dd\	.	4ddd\	.	4fff#\	.
.	.	2a\	.	2dd\	.	2ff#\	.
4F#\	.	.	.	.	.	.	.
4A\	.	4a\	.	(8ee\L	.	(8gg\L	.
.	.	.	.	8cc#\J)	.	8ee\J)	.
=20	=20	=20	=20	=20	=20	=20	=20
2D\	.	4a\ 4f#\	.	4dd\	.	2dd\	.
.	.	4r	.	4r	.	.	.
4F#\	.	2r	.	2r	.	4ff#\	.
4A\	.	.	.	.	.	4aa\	.
=21	=21	=21	=21	=21	=21	=21	=21
4d\	.	8d\L	.	2r	.	16ddd\LL	.
.	.	.	.	.	.	16aa\	.
.	.	8f#\	.	.	.	16bb\	.
.	.	.	.	.	.	16aa\JJ	.
4r	.	8d\	.	.	.	16ddd\LL	.
.	.	.	.	.	.	16aa\	.
.	.	8f#\J	.	.	.	16bb\	.
.	.	.	.	.	.	16aa\JJ	.
2r	.	4d\	.	16ddd\LL	.	8ddd\	.
.	.	.	.	16aa\	.	.	.
.	.	.	.	16bb\	.	8r	.
.	.	.	.	16aa\JJ	.	.	.
.	.	4r	.	16ddd\LL	.	4r	.
.	.	.	.	16aa\	.	.	.
.	.	.	.	16bb\	.	.	.
.	.	.	.	16aa\JJ	.	.	.
=22	=22	=22	=22	=22	=22	=22	=22
8A\L	.	4c#\	.	[1aa\	.	4ggg\	.
8A\	.	.	.	.	.	.	.
8A\	.	2d\	.	.	.	2fff#\	.
8A\J	.	.	.	.	.	.	.
8A\L	.	.	.	.	.	.	.
8A\	.	.	.	.	.	.	.
8A\	.	4c#\	.	.	.	4eee\	.
8A\J	.	.	.	.	.	.	.
=23	=23	=23	=23	=23	=23	=23	=23
4D\	.	8d\L	.	4aa\]	.	16ddd\LL	.
.	.	.	.	.	.	16aa\	.
.	.	8f#\	.	.	.	16bb\	.
.	.	.	.	.	.	16aa\JJ	.
4r	.	8d\	.	4r	.	16ddd\LL	.
.	.	.	.	.	.	16aa\	.
.	.	8f#\J	.	.	.	16bb\	.
.	.	.	.	.	.	16aa\JJ	.
2r	.	4d\	.	16ddd\LL	.	8ddd\	.
.	.	.	.	16aa\	.	.	.
.	.	.	.	16bb\	.	8r	.
.	.	.	.	16aa\JJ	.	.	.
.	.	4r	.	16ddd\LL	.	4r	.
.	.	.	.	16aa\	.	.	.
.	.	.	.	16bb\	.	.	.
.	.	.	.	16aa\JJ	.	.	.
=24	=24	=24	=24	=24	=24	=24	=24
8A\L	.	4c#\	.	1aa\	.	4ggg\	.
8A\	.	.	.	.	.	.	.
8A\	.	2d\	.	.	.	2fff#\	.
8A\J	.	.	.	.	.	.	.
8A\L	.	.	.	.	.	.	.
8A\	.	.	.	.	.	.	.
8A\	.	4c#\	.	.	.	4eee\	.
8A\J	.	.	.	.	.	.	.
=25	=25	=25	=25	=25	=25	=25	=25
8D\L	.	4d\	.	16aa\LL	.	4ddd\	.
.	.	.	.	16dd\	.	.	.
8D\	.	.	.	16cc#\	.	.	.
.	.	.	.	16dd\JJ	.	.	.
8F#\	.	2d\	.	16ccn\LL	.	4r	.
.	.	.	.	16dd\	.	.	.
8G\J	.	.	.	16b\	.	.	.
.	.	.	.	16dd\JJ	.	.	.
8F#\L	.	.	.	16a\LL	.	2r	.
.	.	.	.	16dd\	.	.	.
8G\	.	.	.	16b\	.	.	.
.	.	.	.	16dd\JJ	.	.	.
8A\	.	4d\	.	16cc\LL	.	.	.
.	.	.	.	16dd\	.	.	.
8F#\J	.	.	.	16a\	.	.	.
.	.	.	.	16dd\JJ	.	.	.
=26	=26	=26	=26	=26	=26	=26	=26
4G\	.	4d\	.	4b\	.	16r	.
.	.	.	.	.	.	16g/LL	.
.	.	.	.	.	.	16a/	.
.	.	.	.	.	.	16b/JJ	.
4r	.	4r	.	4r	.	16ccn\LL	.
.	.	.	.	.	.	16dd\	.
.	.	.	.	.	.	16ee\	.
.	.	.	.	.	.	16ff#\JJ	.
2r	.	2r	.	16r	.	16gg\LL	.
.	.	.	.	16b\LL	.	16dd\	.
.	.	.	.	16cc\	.	16ee\	.
.	.	.	.	16dd\JJ	.	16ff#\JJ	.
.	.	.	.	16ee\LL	.	16gg\LL	.
.	.	.	.	16ff#\	.	16aa\	.
.	.	.	.	16gg\	.	16bb\	.
.	.	.	.	16aa\JJ	.	16cccn\JJ	.
=27	=27	=27	=27	=27	=27	=27	=27
8G\L	.	1r	.	2bb\	.	2ddd\	.
8G\	.	.	.	.	.	.	.
8G\	.	.	.	.	.	.	.
8G\J	.	.	.	.	.	.	.
8G\L	.	.	.	4aa\	.	4ccc#\	.
8G\	.	.	.	.	.	.	.
8G\	.	.	.	4gg\	.	4bb\	.
8G\J	.	.	.	.	.	.	.
=28	=28	=28	=28	=28	=28	=28	=28
8A\L	.	(2.a\	.	(4.ff#\	.	(4.aa\	.
8A\	.	.	.	.	.	.	.
8A\	.	.	.	.	.	.	.
8A\J	.	.	.	8gg\)	.	8bb\)	.
8AA/L	.	.	.	(4ff#\	.	(4dd\	.
8AA/	.	.	.	.	.	.	.
8AA/	.	4g\)	.	4ee\)	.	4cc#\)	.
8AA/J	.	.	.	.	.	.	.
=29	=29	=29	=29	=29	=29	=29	=29
4D\	.	4f#\	.	4dd\	.	16d/LL	.
.	.	.	.	.	.	16dd/	.
.	.	.	.	.	.	16cc#/	.
.	.	.	.	.	.	16dd/JJ	.
8A\L	.	2d\	.	4r	.	16ccn\LL	.
.	.	.	.	.	.	16dd\	.
8G\J	.	.	.	.	.	16b\	.
.	.	.	.	.	.	16dd\JJ	.
8F#\L	.	.	.	2r	.	16a\LL	.
.	.	.	.	.	.	16dd\	.
8G\	.	.	.	.	.	16b\	.
.	.	.	.	.	.	16dd\JJ	.
8A\	.	4d\	.	.	.	16cc\LL	.
.	.	.	.	.	.	16dd\	.
8F#\J	.	.	.	.	.	16a\	.
.	.	.	.	.	.	16dd\JJ	.
=30	=30	=30	=30	=30	=30	=30	=30
4G\	.	4d\	.	16r	.	4b\	.
.	.	.	.	16g/LL	.	.	.
.	.	.	.	16a/	.	.	.
.	.	.	.	16b/JJ	.	.	.
4r	.	4r	.	16ccn\LL	.	4r	.
.	.	.	.	16dd\	.	.	.
.	.	.	.	16ee\	.	.	.
.	.	.	.	16ff#\JJ	.	.	.
2r	.	2r	.	16gg\LL	.	16r	.
.	.	.	.	16dd\	.	16b\LL	.
.	.	.	.	16ee\	.	16cc\	.
.	.	.	.	16ff#\JJ	.	16dd\JJ	.
.	.	.	.	16gg\LL	.	16ee\LL	.
.	.	.	.	16aa\	.	16ff#\	.
.	.	.	.	16bb\	.	16gg\	.
.	.	.	.	16cccn\JJ	.	16aa\JJ	.
=31	=31	=31	=31	=31	=31	=31	=31
8G\L	.	1r	.	2ddd\	.	2bb\	.
8G\	.	.	.	.	.	.	.
8G\	.	.	.	.	.	.	.
8G\J	.	.	.	.	.	.	.
8G\L	.	.	.	4ccc#\	.	4aa\	.
8G\	.	.	.	.	.	.	.
8G\	.	.	.	4bb\	.	4gg\	.
8G\J	.	.	.	.	.	.	.
=32	=32	=32	=32	=32	=32	=32	=32
8A\L	.	(2.a\	.	(4.aa\	.	(4.ff#\	.
8A\	.	.	.	.	.	.	.
8A\	.	.	.	.	.	.	.
8A\J	.	.	.	8bb\)	.	8gg\)	.
8AA/L	.	.	.	(4dd\	.	(4ff#\	.
8AA/	.	.	.	.	.	.	.
8AA/	.	4g\)	.	4cc#\)	.	4ee\)	.
8AA/J	.	.	.	.	.	.	.
=33	=33	=33	=33	=33	=33	=33	=33
1D\	.	4f#\	.	4dd\	.	4dd\	.
!	!	! 16cc#xP/	!	!	!	! 16aaP/	!
.	.	8bxp\L	.	2d/	.	8ggp\L	.
.	.	16ax\L	.	.	.	16ff#\L	.
.	.	16gx\JJ	.	.	.	16ee\JJ	.
.	.	(8a\L	.	.	.	(8ff#\L	.
.	.	8f#\J)	.	.	.	8aa\J)	.
.	.	4e\	.	4g/	.	8r	.
.	.	.	.	.	.	8cc#\	.
=34	=34	=34	=34	=34	=34	=34	=34
1D\	.	2.d\	.	4f#/	.	4dd\	.
!	!	!	!	! 16cc#xP/	!	! 16aaP/	!
.	.	.	.	8bxp/L	.	8ggp\L	.
.	.	.	.	16ax/L	.	16ff#\L	.
.	.	.	.	16gx/JJ	.	16ee\JJ	.
.	.	.	.	(8a/L	.	(8ff#\L	.
.	.	.	.	8f#/J)	.	8aa\J)	.
.	.	4e\	.	4g/	.	8r	.
.	.	.	.	.	.	8cc#\	.
=35	=35	=35	=35	=35	=35	=35	=35
4D\	.	4d\	.	4f#/	.	4dd\	.
4D\	.	4d\	.	4ff#/ 4a/ 4d/	.	4ff#/ 4a/ 4d/	.
4D\	.	4d\	.	4ff#/ 4a/ 4d/	.	4ff#/ 4a/ 4d/	.
4r	.	4r	.	4r	.	4r	.
=36:!!:	=36:!!:	=36:!!:	=36:!!:	=36:!!:	=36:!!:	=36:!!:	=36:!!:
*>B	*	*>B	*	*>B	*	*>B	*
1r	.	8dd\L	.	1r	.	1dd\	.
.	.	8cc#\	.	.	.	.	.
.	.	8b\	.	.	.	.	.
.	.	8a\J	.	.	.	.	.
.	.	8b\L	.	.	.	.	.
.	.	8a\	.	.	.	.	.
.	.	8g\	.	.	.	.	.
.	.	8f#\J	.	.	.	.	.
=37	=37	=37	=37	=37	=37	=37	=37
1r	.	8g\L	.	1r	.	1ee\	.
.	.	8f#\	.	.	.	.	.
.	.	8g\	.	.	.	.	.
.	.	8e\J	.	.	.	.	.
.	.	8a\L	.	.	.	.	.
.	.	8g\	.	.	.	.	.
.	.	8a\	.	.	.	.	.
.	.	8A\J	.	.	.	.	.
=38	=38	=38	=38	=38	=38	=38	=38
1r	.	8d\L	.	1dd\	.	1ff#\	.
.	.	8c#\	.	.	.	.	.
.	.	8d\	.	.	.	.	.
.	.	8e\J	.	.	.	.	.
.	.	8f#\L	.	.	.	.	.
.	.	8e\	.	.	.	.	.
.	.	8f#\	.	.	.	.	.
.	.	8d\J	.	.	.	.	.
=39	=39	=39	=39	=39	=39	=39	=39
1r	.	8c#\L	.	[1ee\	.	1gg\	.
.	.	8d\	.	.	.	.	.
.	.	8e\	.	.	.	.	.
.	.	8d\J	.	.	.	.	.
.	.	8c#/L	.	.	.	.	.
.	.	8A/	.	.	.	.	.
.	.	8B/	.	.	.	.	.
.	.	8c#/J	.	.	.	.	.
=40	=40	=40	=40	=40	=40	=40	=40
1r	.	8d/L	.	2ee\]	.	1ff#\	.
.	.	8c#/	.	.	.	.	.
.	.	8B/	.	.	.	.	.
.	.	8A/J	.	.	.	.	.
.	.	8B/L	.	[2dd\	.	.	.
.	.	8A/	.	.	.	.	.
.	.	8G/	.	.	.	.	.
.	.	8F#/J	.	.	.	.	.
=41	=41	=41	=41	=41	=41	=41	=41
1r	.	8G/L	.	2dd\]	.	1ee\	.
.	.	8F#/	.	.	.	.	.
.	.	8G/	.	.	.	.	.
.	.	8E/J	.	.	.	.	.
.	.	8A/L	.	2cc#\	.	.	.
.	.	8G/	.	.	.	.	.
.	.	8F#/	.	.	.	.	.
.	.	8E/J	.	.	.	.	.
=42	=42	=42	=42	=42	=42	=42	=42
1r	.	[1D/	.	(8dd\L	.	(8ff#\L	.
.	.	.	.	8ee\	.	8gg\	.
.	.	.	.	8dd\	.	8ff#\	.
.	.	.	.	8ccn\J	.	8ee\J	.
.	.	.	.	8b/L	.	8dd\L	.
.	.	.	.	8a/	.	8ccn\	.
.	.	.	.	8g/	.	8b\	.
.	.	.	.	8f#/J)	.	8a\J)	.
=43	=43	=43	=43	=43	=43	=43	=43
1GG/	.	4D/]	.	(8g\L	.	(8b\L	.
.	.	.	.	8a\	.	8cc\	.
.	.	4r	.	8b\	.	8dd\	.
.	.	.	.	8cc\J	.	8ee\J	.
.	.	2r	.	8dd\L	.	8ff#\L	.
.	.	.	.	8ee\	.	8gg\	.
.	.	.	.	8ff#\	.	8aa\	.
.	.	.	.	8gg\J)	.	8bb\J)	.
=44	=44	=44	=44	=44	=44	=44	=44
1AA/	.	1r	.	(8gg\L	.	[2ccc\	.
.	.	.	.	8ee\	.	.	.
.	.	.	.	8aa\	.	.	.
.	.	.	.	8gg\J	.	.	.
.	.	.	.	[2ff#\)	.	(8ccc\L]	.
.	.	.	.	.	.	8aa\	.
.	.	.	.	.	.	8ddd\	.
.	.	.	.	.	.	8ccc#\J)	.
=45	=45	=45	=45	=45	=45	=45	=45
1BB/	.	1G/	.	(8ff#\L]	.	(8ddd\L	.
.	.	.	.	8dd\	.	8cccn\	.
.	.	.	.	8gg\	.	8bb\	.
.	.	.	.	8ff#\J	.	8aa\J	.
.	.	.	.	8ee\L	.	8gg\L	.
.	.	.	.	8dd\	.	8ff#\	.
.	.	.	.	8cc\	.	8ee\	.
.	.	.	.	[8b\J)	.	8dd\J)	.
=46	=46	=46	=46	=46	=46	=46	=46
1C/	.	1A/?	.	(8b/L]	.	(4.ee\	.
.	.	.	.	8g/	.	.	.
.	.	.	.	8cc/	.	.	.
.	.	.	.	8b/J	.	8dd\	.
.	.	.	.	8a/L	.	8cc\L	.
.	.	.	.	8b/	.	8dd\	.
.	.	.	.	8a/	.	8cc\	.
.	.	.	.	8g/J)	.	8b\J)	.
!	!	!  Source edition suggests G3 as the correct pitch.	!	!	!	!	!
=47	=47	=47	=47	=47	=47	=47	=47
4D\	.	4d\	.	4f#/	.	4a/	.
4F#\	.	4r	.	8r	.	8r	.
.	.	.	.	8a'/	.	8cc'\	.
4G\	.	2r	.	(8a/L	.	(8cc\L	.
.	.	.	.	8g/J)	.	8b\J)	.
4B\	.	.	.	8r	.	8r	.
.	.	.	.	8b'\	.	8gg'\	.
=48	=48	=48	=48	=48	=48	=48	=48
4D\	.	4d\	.	4a/	.	4ff#/ 4a/ 4d/	.
4F#\	.	4r	.	8r	.	8r	.
.	.	.	.	8a'/	.	8cc'\	.
4G\	.	2r	.	(8a/L	.	(8cc\L	.
.	.	.	.	8g/J)	.	8b\J)	.
4B\	.	.	.	8r	.	8r	.
.	.	.	.	8b'\	.	8gg'\	.
=49	=49	=49	=49	=49	=49	=49	=49
4D\	.	4d\	.	4a/	.	4ff#/ 4a/ 4d/	.
4d\	.	4d\	.	4ff#/ 4a/ 4d/	.	4ff#/ 4a/ 4d/	.
8D\L	.	4d\	.	4ff#/ 4a/ 4d/	.	4ff#/ 4a/ 4d/	.
8c\	.	.	.	.	.	.	.
8B\	.	4r	.	4r	.	4r	.
8A\J	.	.	.	.	.	.	.
=50	=50	=50	=50	=50	=50	=50	=50
4G\	.	8G/L	.	4b/ 4d/ 4G/	.	4gg\ 4b\ 4d\	.
.	.	8G/	.	.	.	.	.
4r	.	8G/	.	(16b\LL	.	(16gg\LL	.
.	.	.	.	16a\	.	16ff#\	.
.	.	8G/J	.	16b\	.	16gg\	.
.	.	.	.	16cc\JJ	.	16aa\JJ	.
2r	.	8G/L	.	8b\L)	.	8gg\L)	.
.	.	8G/	.	8b'\	.	8gg'\	.
.	.	8G/	.	8a'\	.	8ff#'\	.
.	.	8G/J	.	8cc'\J	.	8aa'\J	.
=51	=51	=51	=51	=51	=51	=51	=51
1r	.	8G/L	.	8b'/L	.	8gg'\L	.
.	.	8G/	.	8g'/	.	8bb'\	.
.	.	8G/	.	8f#'/	.	8aa'\	.
.	.	8G/J	.	8a'/J	.	8ccc'\J	.
.	.	4G/	.	8g'/	.	8bb'\	.
.	.	.	.	8r	.	8r	.
.	.	4r	.	4r	.	4r	.
=52	=52	=52	=52	=52	=52	=52	=52
2G\	.	2g\	.	2gg/ 2b/ 2d/ 2G/	.	2gg/ 2b/ 2d/ 2G/	.
2D\	.	2d\	.	2dd\	.	2dd\	.
=53	=53	=53	=53	=53	=53	=53	=53
! 16CP/	!	! 16cP/	!	! 16ccP/	!	! 16ccP/	!
4BBp/	.	4Bp/	.	4bp\	.	4bp\	.
8AA/L	.	8A/L	.	8a/L	.	8a/L	.
8GG/J	.	8G/J	.	8g/J	.	8g/J	.
4D\	.	4d\	.	4dd\	.	4dd\	.
4r	.	4D/	.	4d/	.	4d/	.
=54	=54	=54	=54	=54	=54	=54	=54
4G\	.	8G/L	.	4g/ 4G/	.	4g/ 4G/	.
.	.	8G/	.	.	.	.	.
4r	.	8G/	.	(16b\LL	.	(16gg\LL	.
.	.	.	.	16a\	.	16ff#\	.
.	.	8G/J	.	16b\	.	16gg\	.
.	.	.	.	16cc\JJ	.	16aa\JJ	.
2r	.	8G/L	.	8b\L)	.	8gg\L)	.
.	.	8G/	.	8b'\	.	8gg'\	.
.	.	8G/	.	8a'\	.	8ff#'\	.
.	.	8G/J	.	8cc'\J	.	8aa'\J	.
=55	=55	=55	=55	=55	=55	=55	=55
1r	.	8G/L	.	8b'/L	.	8gg'\L	.
.	.	8G/	.	8g'/	.	8bb'\	.
.	.	8G/	.	8f#'/	.	8aa'\	.
.	.	8G/J	.	8a'/J	.	8ccc'\J	.
.	.	8G/	.	8g'/	.	8bb'\	.
.	.	8r	.	8r	.	8r	.
.	.	4r	.	4r	.	4r	.
=56	=56	=56	=56	=56	=56	=56	=56
2G\	.	2g\	.	2gg/ 2b/ 2d/ 2G/	.	2gg/ 2b/ 2d/ 2G/	.
2D\	.	2d\	.	2dd\	.	2dd\	.
=57	=57	=57	=57	=57	=57	=57	=57
! 16CP/	!	! 16cP/	!	! 16ccP/	!	! 16ccP/	!
4BBp/	.	4Bp/	.	4bp\	.	4bp\	.
8AA/L	.	8A/L	.	8a/L	.	8a/L	.
8GG/J	.	8G/J	.	8g/J	.	8g/J	.
4D\	.	4d\	.	4dd\	.	4dd\	.
4r	.	4D/	.	4d/	.	4d/	.
=58	=58	=58	=58	=58	=58	=58	=58
8G\L	.	16G/LL	.	16g/LL	.	4g/	.
.	.	16B/	.	16d/	.	.	.
8G\	.	16B/	.	16d/	.	.	.
.	.	16B/JJ	.	16d/JJ	.	.	.
8G\	.	16B/LL	.	16d/LL	.	4r	.
.	.	16B/	.	16d/	.	.	.
8G\J	.	16B/	.	16d/	.	.	.
.	.	16B/JJ	.	16d/JJ	.	.	.
8G\L	.	16B/LL	.	16d/LL	.	4.gg\	.
.	.	16B/	.	16d/	.	.	.
8G\	.	16B/	.	16d/	.	.	.
.	.	16B/JJ	.	16d/JJ	.	.	.
8G\	.	16B/LL	.	16d/LL	.	.	.
.	.	16B/	.	16d/	.	.	.
8G\J	.	16B/	.	16d/	.	(16bb\LL	.
.	.	16B/JJ	.	16d/JJ	.	16gg\JJ)	.
=59	=59	=59	=59	=59	=59	=59	=59
8A\L	.	16c\LL	.	16d/LL	.	4ff#\	.
.	.	16c\	.	16d/	.	.	.
8A\	.	16c\	.	16d/	.	.	.
.	.	16c\JJ	.	16d/JJ	.	.	.
8A\	.	16c\LL	.	16d/LL	.	4r	.
.	.	16c\	.	16d/	.	.	.
8A\J	.	16c\	.	16d/	.	.	.
.	.	16c\JJ	.	16d/JJ	.	.	.
8D\L	.	16c\LL	.	16f#/LL	.	4.aa\	.
.	.	16c\	.	16f#/	.	.	.
8D\	.	16c\	.	16f#/	.	.	.
.	.	16c\JJ	.	16f#/JJ	.	.	.
8D\	.	16c\LL	.	16f#/LL	.	.	.
.	.	16c\	.	16f#/	.	.	.
8D\J	.	16c\	.	16f#/	.	(16ccc\LL	.
.	.	16c\JJ	.	16f#/JJ	.	16aa\JJ)	.
=60	=60	=60	=60	=60	=60	=60	=60
8GG/L	.	16B/LL	.	16g/LL	.	4gg\	.
.	.	16B/	.	16d/	.	.	.
8GG/	.	16B/	.	16d/	.	.	.
.	.	16B/JJ	.	16d/JJ	.	.	.
8GG/	.	16B/LL	.	16d/LL	.	4r	.
.	.	16B/	.	16d/	.	.	.
8GG/J	.	16B/	.	16d/	.	.	.
.	.	16B/JJ	.	16d/JJ	.	.	.
8G\L	.	16B/LL	.	16d/LL	.	4.gg\	.
.	.	16B/	.	16d/	.	.	.
8G\	.	16B/	.	16d/	.	.	.
.	.	16B/JJ	.	16d/JJ	.	.	.
8G\	.	16B/LL	.	16d/LL	.	.	.
.	.	16B/	.	16d/	.	.	.
8G\J	.	16B/	.	16d/	.	(16bb\LL	.
.	.	16B/JJ	.	16d/JJ	.	16gg\JJ)	.
=61	=61	=61	=61	=61	=61	=61	=61
8A\L	.	16c\LL	.	16d/LL	.	4ff#\	.
.	.	16c\	.	16d/	.	.	.
8A\	.	16c\	.	16d/	.	.	.
.	.	16c\JJ	.	16d/JJ	.	.	.
8A\	.	16c\LL	.	16d/LL	.	4r	.
.	.	16c\	.	16d/	.	.	.
8A\J	.	16c\	.	16d/	.	.	.
.	.	16c\JJ	.	16d/JJ	.	.	.
8D\L	.	16c\LL	.	16f#/LL	.	4.aa\	.
.	.	16c\	.	16f#/	.	.	.
8D\	.	16c\	.	16f#/	.	.	.
.	.	16c\JJ	.	16f#/JJ	.	.	.
8D\	.	16c\LL	.	16f#/LL	.	.	.
.	.	16c\	.	16f#/	.	.	.
8D\J	.	16c\	.	16f#/	.	(16ccc\LL	.
.	.	16c\JJ	.	16f#/JJ	.	16aa\JJ)	.
=62	=62	=62	=62	=62	=62	=62	=62
8G/L	.	8B/L	.	8g/L	.	8gg\L	.
8GG/	.	8G/	.	8G/	.	8G/	.
8AA/	.	8A/	.	8A/	.	8A/	.
8BB/J	.	8B/J	.	8B/J	.	8B/J	.
8C\L	.	8c\L	.	8c/L	.	8c/L	.
8D\	.	8d\	.	8d/	.	8d/	.
8E\	.	8e\	.	8e/	.	8e/	.
8F#\J	.	8f#\J	.	8f#/J	.	8f#/J	.
=63	=63	=63	=63	=63	=63	=63	=63
8G\L	.	8g\L	.	8g/L	.	8g/L	.
8F#\	.	8f#\	.	8f#/	.	8f#/	.
8E\	.	8e\	.	8e/	.	8e/	.
8D\J	.	8d\J	.	8d/J	.	8d/J	.
8C/L	.	8c/L	.	8c/L	.	8c/L	.
8BB/	.	8B/	.	8B/	.	8B/	.
8AA/	.	8A/	.	8A/	.	8A/	.
8GG/J	.	8G/J	.	8G/J	.	8G/J	.
=64	=64	=64	=64	=64	=64	=64	=64
4D\	.	4d\	.	4d/	.	4d/	.
4d\	.	4dd\	.	4ff#/ 4a/ 4d/	.	4ff#/ 4a/ 4d/	.
4D\	.	4d\	.	4ff#/ 4a/ 4d/	.	4ff#/ 4a/ 4d/	.
4r	.	4r	.	4r	.	4r	.
=65	=65	=65	=65	=65	=65	=65	=65
1r	.	1r	.	1r	.	2g/	.
.	.	.	.	.	.	4b\	.
.	.	.	.	.	.	4dd\	.
=66	=66	=66	=66	=66	=66	=66	=66
1r	.	1r	.	2g/	.	4gg\	.
.	.	.	.	.	.	2gg\	.
.	.	.	.	4b\	.	.	.
.	.	.	.	4dd\	.	4aa\	.
=67	=67	=67	=67	=67	=67	=67	=67
1r	.	2G/	.	4gg\	.	4bb\	.
.	.	.	.	2gg\	.	2bb\	.
.	.	4B/	.	.	.	.	.
.	.	4d\	.	(8aa\L	.	(8ccc\L	.
.	.	.	.	8ff#\J)	.	8aa\J)	.
=68	=68	=68	=68	=68	=68	=68	=68
2GG/	.	4d\	.	4gg\	.	4bb\	.
.	.	2d\	.	2g/	.	2b\	.
4BB/	.	.	.	.	.	.	.
4D\	.	4d\	.	(8a/L	.	(8cc\L	.
.	.	.	.	8f#/J)	.	8a\J)	.
=69	=69	=69	=69	=69	=69	=69	=69
2G\	.	4d\ 4B\	.	4g/	.	2g/	.
.	.	4r	.	4r	.	.	.
4B\	.	2r	.	2r	.	4b\	.
4d\	.	.	.	.	.	4dd\	.
=70	=70	=70	=70	=70	=70	=70	=70
4G\	.	8G/L	.	2r	.	16gg\LL	.
.	.	.	.	.	.	16dd\	.
.	.	8B/	.	.	.	16ee\	.
.	.	.	.	.	.	16dd\JJ	.
4r	.	8G/	.	.	.	16gg\LL	.
.	.	.	.	.	.	16dd\	.
.	.	8B/J	.	.	.	16ee\	.
.	.	.	.	.	.	16dd\JJ	.
2r	.	4G/	.	16gg\LL	.	8gg\	.
.	.	.	.	16dd\	.	.	.
.	.	.	.	16ee\	.	8r	.
.	.	.	.	16dd\JJ	.	.	.
.	.	4r	.	16gg\LL	.	4r	.
.	.	.	.	16dd\	.	.	.
.	.	.	.	16ee\	.	.	.
.	.	.	.	16dd\JJ	.	.	.
=71	=71	=71	=71	=71	=71	=71	=71
8D\L	.	4F#/	.	[1ddd\	.	4ccc\	.
8D\	.	.	.	.	.	.	.
8D\	.	2G/	.	.	.	2bb\	.
8D\J	.	.	.	.	.	.	.
8D\L	.	.	.	.	.	.	.
8D\	.	.	.	.	.	.	.
8D\	.	4F#/	.	.	.	4aa\	.
8D\J	.	.	.	.	.	.	.
=72	=72	=72	=72	=72	=72	=72	=72
4GG/	.	8G/L	.	8ddd\]	.	16gg\LL	.
.	.	.	.	.	.	16dd\	.
.	.	8B/	.	8r	.	16ee\	.
.	.	.	.	.	.	16dd\JJ	.
4r	.	8G/	.	4r	.	16gg\LL	.
.	.	.	.	.	.	16dd\	.
.	.	8B/J	.	.	.	16ee\	.
.	.	.	.	.	.	16dd\JJ	.
2r	.	4G/	.	16gg\LL	.	4gg\	.
.	.	.	.	16dd\	.	.	.
.	.	.	.	16ee\	.	.	.
.	.	.	.	16dd\JJ	.	.	.
.	.	4r	.	16gg\LL	.	4r	.
.	.	.	.	16dd\	.	.	.
.	.	.	.	16ee\	.	.	.
.	.	.	.	16dd\JJ	.	.	.
=73	=73	=73	=73	=73	=73	=73	=73
8D\L	.	4F#/	.	[1ddd\	.	4ccc\	.
8D\	.	.	.	.	.	.	.
8D\	.	2G/	.	.	.	2bb\	.
8D\J	.	.	.	.	.	.	.
8D\L	.	.	.	.	.	.	.
8D\	.	.	.	.	.	.	.
8D\	.	4F#/	.	.	.	4aa\	.
8D\J	.	.	.	.	.	.	.
=74	=74	=74	=74	=74	=74	=74	=74
8GG\L	.	4G/	.	16ddd\LL]	.	4gg\	.
.	.	.	.	16gg\	.	.	.
8G\	.	.	.	16ff#\	.	.	.
.	.	.	.	16gg\JJ	.	.	.
8B\	.	2g\	.	16ffn\LL	.	4r	.
.	.	.	.	16gg\	.	.	.
8c\J	.	.	.	16ee\	.	.	.
.	.	.	.	16gg\JJ	.	.	.
8B\L	.	.	.	16dd\LL	.	2r	.
.	.	.	.	16gg\	.	.	.
8d\	.	.	.	16ff\	.	.	.
.	.	.	.	16gg\JJ	.	.	.
8c\	.	4g\	.	16ee\LL	.	.	.
.	.	.	.	16gg\	.	.	.
8B\J	.	.	.	16dd\	.	.	.
.	.	.	.	16gg\JJ	.	.	.
=75	=75	=75	=75	=75	=75	=75	=75
4c\	.	4g\	.	4ee\	.	16r	.
.	.	.	.	.	.	16c/LL	.
.	.	.	.	.	.	16d/	.
.	.	.	.	.	.	16e/JJ	.
4r	.	4r	.	4r	.	16fn/LL	.
.	.	.	.	.	.	16g/	.
.	.	.	.	.	.	16a/	.
.	.	.	.	.	.	16b/JJ	.
2r	.	2r	.	16r	.	16cc\LL	.
.	.	.	.	16cc\LL	.	16ee\	.
.	.	.	.	16dd\	.	16ffn\	.
.	.	.	.	16ee\JJ	.	16gg\JJ	.
.	.	.	.	16ffn\LL	.	16aa\LL	.
.	.	.	.	16gg\	.	16bb\	.
.	.	.	.	16aa\	.	16ccc\	.
.	.	.	.	16bb\JJ	.	16ddd\JJ	.
=76	=76	=76	=76	=76	=76	=76	=76
8c\L	.	1r	.	2ccc\	.	2eee\	.
8c\	.	.	.	.	.	.	.
8c\	.	.	.	.	.	.	.
8c\J	.	.	.	.	.	.	.
8c\L	.	.	.	4bb\	.	4ddd\	.
8c\	.	.	.	.	.	.	.
8c\	.	.	.	4aa\	.	4ccc\	.
8c\J	.	.	.	.	.	.	.
=77	=77	=77	=77	=77	=77	=77	=77
8d\L	.	(2.d\	.	(4.gg\	.	(4.bb\	.
8d\	.	.	.	.	.	.	.
8d\	.	.	.	.	.	.	.
8d\J	.	.	.	16aa\LL	.	16ccc\LL	.
.	.	.	.	16bb\JJ)	.	16ddd\JJ)	.
8D\L	.	.	.	(4b/	.	(4gg\	.
8D\	.	.	.	.	.	.	.
8D\	.	4c\)	.	4a/)	.	4ff#\)	.
8D\J	.	.	.	.	.	.	.
=78	=78	=78	=78	=78	=78	=78	=78
4G\	.	4B/	.	4g/	.	16g\LL	.
.	.	.	.	.	.	16gg\	.
.	.	.	.	.	.	16ff#\	.
.	.	.	.	.	.	16gg\JJ	.
8d\L	.	2G/	.	4r	.	16ffn\LL	.
.	.	.	.	.	.	16gg\	.
8c\J	.	.	.	.	.	16ee\	.
.	.	.	.	.	.	16gg\JJ	.
8B\L	.	.	.	2r	.	16dd\LL	.
.	.	.	.	.	.	16gg\	.
8c\	.	.	.	.	.	16ee\	.
.	.	.	.	.	.	16gg\JJ	.
8d\	.	4g\	.	.	.	16ff\LL	.
.	.	.	.	.	.	16gg\	.
8B\J	.	.	.	.	.	16dd\	.
.	.	.	.	.	.	16gg\JJ	.
=79	=79	=79	=79	=79	=79	=79	=79
4c\	.	4g\	.	16r	.	4ee\	.
.	.	.	.	16c/LL	.	.	.
.	.	.	.	16d/	.	.	.
.	.	.	.	16e/JJ	.	.	.
4r	.	4r	.	16fn/LL	.	4r	.
.	.	.	.	16g/	.	.	.
.	.	.	.	16a/	.	.	.
.	.	.	.	16b/JJ	.	.	.
2r	.	2r	.	16cc\LL	.	16r	.
.	.	.	.	16ee\	.	16cc\LL	.
.	.	.	.	16ffn\	.	16dd\	.
.	.	.	.	16gg\JJ	.	16ee\JJ	.
.	.	.	.	16aa\LL	.	16ffn\LL	.
.	.	.	.	16bb\	.	16gg\	.
.	.	.	.	16ccc\	.	16aa\	.
.	.	.	.	16ddd\JJ	.	16bb\JJ	.
=80	=80	=80	=80	=80	=80	=80	=80
8c\L	.	1r	.	2eee\	.	2ccc\	.
8c\	.	.	.	.	.	.	.
8c\	.	.	.	.	.	.	.
8c\J	.	.	.	.	.	.	.
8c\L	.	.	.	4ddd\	.	4bb\	.
8c\	.	.	.	.	.	.	.
8c\	.	.	.	4ccc\	.	4aa\	.
8c\J	.	.	.	.	.	.	.
=81	=81	=81	=81	=81	=81	=81	=81
8d\L	.	(2.d\	.	(4.bb\	.	(4.gg\	.
8d\	.	.	.	.	.	.	.
8d\	.	.	.	.	.	.	.
8d\J	.	.	.	16ccc\LL	.	16aa\LL	.
.	.	.	.	16ddd\JJ)	.	16bb\JJ)	.
8D\L	.	.	.	(4b/	.	(4gg\	.
8D\	.	.	.	.	.	.	.
8D\	.	4c\)	.	4a/)	.	4ff#\)	.
8D\J	.	.	.	.	.	.	.
=82	=82	=82	=82	=82	=82	=82	=82
[1G\	.	4B/	.	4g/	.	4gg\	.
!	!	! 16f#P/	!	!	!	! 16dddP/	!
.	.	8ep\L	.	2G/	.	8cccp\L	.
.	.	16d\L	.	.	.	16bb\L	.
.	.	16c\JJ	.	.	.	16aa\JJ	.
.	.	(8d\L	.	.	.	(8bb\L	.
.	.	8B\J)	.	.	.	8ddd\J)	.
.	.	4A/	.	4c/	.	8r	.
.	.	.	.	.	.	8ff#'\	.
=83	=83	=83	=83	=83	=83	=83	=83
1G\_	.	4G/	.	4B/	.	4gg\	.
!	!	!	!	! 16f#P/	!	! 16dddP/	!
.	.	2G/	.	8ep/L	.	8cccp\L	.
.	.	.	.	16d/L	.	16bb\L	.
.	.	.	.	16c/JJ	.	16aa\JJ	.
.	.	.	.	(8d/L	.	(8bb\L	.
.	.	.	.	8B/J)	.	8ddd\J)	.
.	.	4A/	.	4c/	.	8r	.
.	.	.	.	.	.	8ff#'\	.
=84	=84	=84	=84	=84	=84	=84	=84
4G\]	.	4G/	.	4B/	.	4gg\	.
4GG/	.	4G/	.	4gg/ 4b/ 4d/	.	4gg/ 4b/ 4d/	.
4GG/	.	4G/	.	4gg/ 4b/ 4d/ 4G/	.	4gg/ 4b/ 4d/ 4G/	.
4r	.	4r	.	4r	.	4r	.
==:|!	==:|!	==:|!	==:|!	==:|!	==:|!	==:|!	==:|!
*-	*-	*-	*-	*-	*-	*-	*-
!!!RWG: Appoggiaturas of spine 'Violino I' need manual editing in measures: 4, 8, 33, 34, 53, 57, 82, 83
!!!RWG: Appoggiaturas of spine 'Violino II' need manual editing in measures: 4, 8, 34, 53, 57, 83
!!!RWG: Appoggiaturas of spine 'Viola' need manual editing in measures: 4, 8, 33, 53, 57, 82
!!!RWG: Appoggiaturas of spine 'Violoncello' need manual editing in measures: 4, 8, 53, 57
!!!RWG: Key is interpreted using the Humdrum key tool.
!!!AFT: stage2
!!!END: 1993/08/17
!!format changes:
!!content changes:
!!public access: complete
!!!KEY: 4267447152
!!!EMD: Converted from MuseData to Humdrum Dec 16, 2000, by Andreas Kornstaedt using muse2kern.
!!!EMD: Manual editing by Craig Sapp, Nov 2001
!!!YEC: Copyright (c) 1994, 2000 Center for Computer Assisted Research in the Humanities
!!!YEM: Rights to all derivative editions reserved.
!!!YEM: Refer to licensing agreement for further details.
!!!YEN: United States of America
!!!SCA: Chronologisch-thematisches Verzeichnis sämtlicher Tonwerke Wolfgang Amade Mozarts (L. von Köchel; 1862, 2/1905, 3/1937, 1947)
